public/assets/comet-logo.svg

<svg xmlns="http://www.w3.org/2000/svg" viewBox="0 0 100.116 25.217" overflow="visible" id="svg-1187867664_5074"><path d="M 7.172 20.115 L 7.136 20.079 C 2.99 15.732 3.02 8.717 7.208 4.408 C 9.218 2.34 11.939 1.185 14.771 1.198 C 17.603 1.212 20.314 2.393 22.305 4.48 L 22.339 4.517 C 22.434 4.616 22.434 4.774 22.339 4.872 C 22.294 4.92 22.232 4.946 22.168 4.946 C 22.104 4.946 22.042 4.92 21.997 4.872 L 21.926 4.8 C 20.187 2.994 17.826 1.978 15.364 1.978 C 12.902 1.978 10.541 2.994 8.802 4.8 C 5.177 8.565 5.177 14.66 8.802 18.425 C 9.351 18.997 9.932 19.537 10.543 20.043 C 10.584 20.079 10.627 20.112 10.673 20.14 C 10.72 20.169 10.773 20.183 10.827 20.182 C 10.881 20.178 10.932 20.157 10.975 20.123 C 11.018 20.089 11.058 20.052 11.095 20.011 L 13.705 17.304 C 13.763 17.243 13.804 17.195 13.829 17.159 C 13.869 17.107 13.891 17.043 13.891 16.978 C 13.885 16.912 13.858 16.85 13.815 16.802 C 13.773 16.754 13.727 16.709 13.678 16.668 C 13.103 16.165 12.55 15.638 12.018 15.086 C 9.39 12.356 9.39 7.938 12.018 5.208 C 13.279 3.898 14.991 3.162 16.776 3.162 C 18.561 3.162 20.273 3.898 21.534 5.208 L 21.604 5.28 C 21.699 5.378 21.699 5.538 21.604 5.636 C 21.558 5.683 21.497 5.71 21.432 5.71 C 21.368 5.71 21.306 5.683 21.261 5.636 L 21.192 5.564 C 20.182 4.515 18.811 3.926 17.382 3.926 C 15.952 3.926 14.581 4.515 13.572 5.564 C 11.468 7.75 11.468 11.289 13.572 13.475 C 14.117 14.041 14.68 14.589 15.261 15.118 C 15.315 15.167 15.358 15.202 15.392 15.223 C 15.445 15.258 15.499 15.275 15.548 15.273 C 15.596 15.273 15.649 15.253 15.704 15.214 C 15.749 15.179 15.791 15.14 15.829 15.098 L 17.989 12.856 C 18.032 12.813 18.072 12.766 18.109 12.716 C 18.147 12.666 18.169 12.606 18.171 12.542 C 18.167 12.478 18.143 12.417 18.103 12.368 C 18.064 12.319 18.022 12.274 17.976 12.232 C 17.418 11.701 16.872 11.158 16.337 10.603 C 15.105 9.323 15.105 7.251 16.337 5.971 C 16.928 5.357 17.731 5.012 18.568 5.012 C 19.405 5.012 20.207 5.357 20.799 5.971 C 21.117 6.3 21.426 6.638 21.73 6.984 C 22.209 7.533 23.026 7.574 23.554 7.076 C 24.057 6.602 24.121 5.806 23.702 5.251 C 19.163 -0.724 10.817 -1.751 5.059 2.959 C -0.699 7.667 -1.689 16.332 2.848 22.309 C 3.662 23.383 4.626 24.324 5.707 25.103 C 5.821 25.184 5.913 25.222 5.985 25.216 C 6.056 25.21 6.141 25.155 6.239 25.053 L 8.892 22.298 C 8.939 22.252 8.983 22.202 9.022 22.148 C 9.063 22.095 9.085 22.028 9.085 21.96 C 9.076 21.893 9.046 21.83 8.998 21.783 C 8.953 21.736 8.905 21.692 8.853 21.653 C 8.262 21.177 7.701 20.664 7.172 20.115 Z M 40.087 11.935 C 39.567 15.396 37.359 17.177 33.517 17.177 C 29.673 17.177 26.823 14.456 26.823 10.179 C 26.823 5.902 29.55 3.181 33.517 3.181 C 37.26 3.181 39.815 5.496 40.062 8.398 L 37.708 8.398 C 37.436 6.284 35.799 5.216 33.517 5.216 C 30.838 5.216 29.054 7.052 29.054 10.179 C 29.054 13.307 30.838 15.141 33.517 15.141 C 35.997 15.141 37.212 14.251 37.732 11.935 Z M 55.014 10.179 C 55.014 14.632 52.115 17.177 48.319 17.177 C 44.525 17.177 41.625 14.632 41.625 10.179 C 41.625 5.725 44.525 3.181 48.319 3.181 C 52.115 3.181 55.014 5.725 55.014 10.179 Z M 43.854 10.179 C 43.854 13.311 45.638 15.141 48.317 15.141 C 50.996 15.141 52.779 13.311 52.779 10.179 C 52.779 7.048 50.995 5.216 48.317 5.216 C 45.638 5.216 43.854 7.052 43.854 10.179 Z M 76.479 8.398 L 76.479 16.795 L 74.248 16.795 L 74.248 8.652 C 74.248 6.386 73.131 5.216 71.025 5.216 C 69.116 5.216 67.677 6.539 67.677 9.289 L 67.677 16.795 L 65.446 16.795 L 65.446 8.652 C 65.446 6.386 64.33 5.216 62.224 5.216 C 60.315 5.216 58.876 6.539 58.876 9.289 L 58.876 16.795 L 56.644 16.795 L 56.644 3.564 L 58.876 3.564 L 58.876 5.041 C 58.876 5.168 58.924 5.218 59.047 5.218 C 59.172 5.218 59.295 5.041 59.319 4.963 C 60.087 3.769 61.303 3.182 62.963 3.182 C 64.923 3.182 66.31 4.048 67.03 5.497 C 67.106 5.624 67.178 5.727 67.278 5.727 C 67.402 5.727 67.477 5.624 67.574 5.447 C 68.293 3.945 69.706 3.182 71.764 3.182 C 74.715 3.182 76.475 5.169 76.475 8.399 L 76.479 8.399 Z M 91.115 12.597 C 90.818 13.893 90.171 14.965 89.206 15.855 C 88.215 16.747 86.775 17.177 84.917 17.177 C 80.825 17.177 78.099 14.452 78.099 10.179 C 78.099 5.905 80.701 3.181 84.668 3.181 C 88.635 3.181 91.09 6.005 91.09 9.288 L 91.114 10.815 L 80.454 10.815 C 80.625 13.462 82.264 15.141 84.916 15.141 C 87.072 15.141 88.339 14.3 88.759 12.596 L 91.115 12.596 Z M 80.478 8.907 L 88.611 8.907 C 88.611 6.591 87.148 5.216 84.669 5.216 C 82.361 5.216 80.802 6.539 80.478 8.907 Z M 96.645 14.76 C 96.521 14.76 96.445 14.735 96.373 14.658 C 96.302 14.585 96.266 14.483 96.273 14.379 L 96.273 5.599 L 99.372 5.599 L 99.372 3.566 L 96.273 3.566 L 96.273 0 L 94.042 0 L 94.042 3.564 L 91.067 3.564 L 91.067 5.595 L 95.94 5.595 C 95.732 5.595 95.329 6.03 95.196 6.179 C 94.817 6.602 94.472 7.105 94.27 7.659 C 94.038 8.288 94.066 8.922 94.042 9.578 L 94.042 11.615 L 94.042 11.604 L 94.042 12.473 C 94.042 14.863 95.929 16.8 98.257 16.8 L 100.116 16.8 L 100.116 14.764 L 96.645 14.764 Z" fill="var(--token-8740f4aa-bb38-489d-9272-2825d8190d51, rgb(9, 23, 23)) /* {&quot;name&quot;:&quot;Offblack&quot;} */"></path></svg>

<?xml version="1.0" encoding="UTF-8"?>
<svg id="svg-1187867664_5074" xmlns="http://www.w3.org/2000/svg" version="1.1" viewBox="0 0 100.12 25.22">
  <!-- Generator: Adobe Illustrator 29.8.2, SVG Export Plug-In . SVG Version: 2.1.1 Build 3)  -->
  <defs>
    <style>
      .st0 {
        fill: #fff;
      }
    </style>
  </defs>
  <path class="st0" d="M7.17,20.11l-.04-.04c-4.15-4.35-4.12-11.36.07-15.67,2.01-2.07,4.73-3.22,7.56-3.21,2.83.01,5.54,1.19,7.53,3.28l.03.04c.09.1.09.26,0,.36-.05.05-.11.07-.17.07s-.13-.03-.17-.07l-.07-.07c-1.74-1.81-4.1-2.82-6.56-2.82s-4.82,1.02-6.56,2.82c-3.62,3.76-3.62,9.86,0,13.62.55.57,1.13,1.11,1.74,1.62.04.04.08.07.13.1.05.03.1.04.15.04.05,0,.11-.02.15-.06.04-.03.08-.07.12-.11l2.61-2.71c.06-.06.1-.11.12-.15.04-.05.06-.12.06-.18,0-.07-.03-.13-.08-.18-.04-.05-.09-.09-.14-.13-.58-.5-1.13-1.03-1.66-1.58-2.63-2.73-2.63-7.15,0-9.88,1.26-1.31,2.97-2.05,4.76-2.05s3.5.74,4.76,2.05l.07.07c.09.1.09.26,0,.36-.05.05-.11.07-.17.07s-.13-.03-.17-.07l-.07-.07c-1.01-1.05-2.38-1.64-3.81-1.64s-2.8.59-3.81,1.64c-2.1,2.19-2.1,5.72,0,7.91.55.57,1.11,1.11,1.69,1.64.05.05.1.08.13.1.05.04.11.05.16.05.05,0,.1-.02.16-.06.04-.03.09-.07.12-.12l2.16-2.24s.08-.09.12-.14c.04-.05.06-.11.06-.17,0-.06-.03-.12-.07-.17-.04-.05-.08-.09-.13-.14-.56-.53-1.1-1.07-1.64-1.63-1.23-1.28-1.23-3.35,0-4.63.59-.61,1.39-.96,2.23-.96s1.64.34,2.23.96c.32.33.63.67.93,1.01.48.55,1.3.59,1.82.09.5-.47.57-1.27.15-1.83C19.16-.72,10.82-1.75,5.06,2.96-.7,7.67-1.69,16.33,2.85,22.31c.81,1.07,1.78,2.01,2.86,2.79.11.08.21.12.28.11.07,0,.16-.06.25-.16l2.65-2.75s.09-.1.13-.15c.04-.05.06-.12.06-.19,0-.07-.04-.13-.09-.18-.05-.05-.09-.09-.15-.13-.59-.48-1.15-.99-1.68-1.54ZM40.09,11.94c-.52,3.46-2.73,5.24-6.57,5.24s-6.69-2.72-6.69-7,2.73-7,6.69-7c3.74,0,6.3,2.31,6.55,5.22h-2.35c-.27-2.11-1.91-3.18-4.19-3.18-2.68,0-4.46,1.84-4.46,4.96s1.78,4.96,4.46,4.96c2.48,0,3.7-.89,4.22-3.21h2.36ZM55.01,10.18c0,4.45-2.9,7-6.69,7s-6.69-2.55-6.69-7,2.9-7,6.69-7,6.69,2.54,6.69,7ZM43.85,10.18c0,3.13,1.78,4.96,4.46,4.96s4.46-1.83,4.46-4.96-1.78-4.96-4.46-4.96-4.46,1.84-4.46,4.96ZM76.48,8.4v8.4h-2.23v-8.14c0-2.27-1.12-3.44-3.22-3.44-1.91,0-3.35,1.32-3.35,4.07v7.51h-2.23v-8.14c0-2.27-1.12-3.44-3.22-3.44-1.91,0-3.35,1.32-3.35,4.07v7.51h-2.23V3.56h2.23v1.48c0,.13.05.18.17.18s.25-.18.27-.26c.77-1.19,1.98-1.78,3.64-1.78,1.96,0,3.35.87,4.07,2.32.08.13.15.23.25.23.12,0,.2-.1.3-.28.72-1.5,2.13-2.27,4.19-2.27,2.95,0,4.71,1.99,4.71,5.22h0ZM91.11,12.6c-.3,1.3-.94,2.37-1.91,3.26-.99.89-2.43,1.32-4.29,1.32-4.09,0-6.82-2.73-6.82-7s2.6-7,6.57-7,6.42,2.82,6.42,6.11l.02,1.53h-10.66c.17,2.65,1.81,4.33,4.46,4.33,2.16,0,3.42-.84,3.84-2.55h2.36ZM80.48,8.91h8.13c0-2.32-1.46-3.69-3.94-3.69-2.31,0-3.87,1.32-4.19,3.69ZM96.64,14.76c-.12,0-.2-.03-.27-.1-.07-.07-.11-.18-.1-.28V5.6h3.1v-2.03h-3.1V0h-2.23v3.56h-2.97v2.03h4.87c-.21,0-.61.44-.74.58-.38.42-.72.93-.93,1.48-.23.63-.2,1.26-.23,1.92v2.04h0s0,.86,0,.86c0,2.39,1.89,4.33,4.22,4.33h1.86v-2.04h-3.47Z"/>
</svg>
